!!!!SEGMENT: pl-sa--230-a-vi-34--012_luna-georgius--litania-agnus-dei.krn
!!!cenid: 17xx:506
!!!COM: Luna, Georgius
!!!COM-rismid: pe41010079
!!!CDT:
!!!CNT:
!!!OPR: Litania
!!!OTL: Agnus Dei
!!!OMV: 012
!!!PDT:
!!!AGN: Sacred; Mass
!!!SMS-siglum: PL-SA
!!!SMS-shelfmark: 230/A VI 34
!!!SMS-shelfwork: 001-012 M
!!!SMS-variant: Violino 1mo: PL-SA 230/A VI 34:11-12
!!!SMS-altvar: Violino 1mo: PL-SA 230/A VI 34:32
!!!NIFC-rismid: 1001070084
!!!URL-scan: http://bc.bdsandomierz.pl/dlibra/publication/1606/edition/1574/content
!!!ONB-nifc: UWAGA: części Litanii: Simphonia, Kirie, Pater de caelis, Sancta Maria, Mater Christi, Mater amabilis, Virgo prudentissima, Speculum, Rosa mistica, Salus infirmorum, Regina angelorum, Agnus Dei
!!!key:
**kern	**dynam	**kern	**dynam	**kern	**dynam	**kern	**text	**kern	**text	**kern	**kern
*part7	*part7	*part6	*part6	*part5	*part5	*part4	*part4	*part3	*part3	*part2	*part1
*	*	*group3	*	*group3	*	*group2	*	*group2	*	*group1	*group1
*staff7	*	*staff6	*	*staff5	*	*staff4	*staff4	*staff3	*staff3	*staff2	*staff1
*Iempty	*	*Ivioln	*	*Ivioln	*	*Itenor	*	*Ivox	*	*Iempty	*Iempty
*I"Fundamenti	*	*I"Violino 2do.	*	*I"Violino 1mo.	*	*I"Tenore	*	*I"Canto	*	*I"Clarino 2do ex C	*I"Clarino 1mo ex C
*I'fund.	*	*I'vl 2	*	*I'vl 1	*	*I'T	*	*I'C	*	*I'clar 2	*I'clar 1
*clefF4	*	*clefG2	*	*clefG2	*	*clefC4	*	*clefC1	*	*clefG2	*clefG2
*k[b-e-]	*	*k[b-e-]	*	*k[b-e-]	*	*k[b-e-]	*	*k[b-e-]	*	*k[b-e-]	*k[b-e-]
*g:	*	*g:	*	*g:	*	*g:	*	*g:	*	*g:	*g:
*M2/2	*	*M2/2	*	*M2/2	*	*M2/2	*	*M2/2	*	*M2/2	*M2/2
*met(C.)	*	*met(C.)	*	*met(C.)	*	*met(C.)	*	*met(C.)	*	*met(C.)	*met(C.)
=1	=1	=1	=1	=1	=1	=1	=1	=1	=1	=1	=1
!LO:TX:a:t=P:problem=wszystkie caudy z prawej strony z wyjątkiem nut na dodanych górnych	!	!	!	!LO:TX:a:t=P:problem=wszystkie caudy z prawej strony z wyjątkiem nut na dodanych górnych	!	!	!	!	!	!	!
!LO:TX:a:t=P:problem=kolejność bemoli B- E- BB-	!	!LO:TX:a:t=P:problem=kolejność bemoli ee- b-	!	!LO:TX:a:t=P:problem=kolejność bemoli ee- b-	!	!	!	!	!	!	!
!LO:TX:a:t=Solo	!	!LO:TX:a:t=P:problem=wszystkie caudy z prawej strony z wyjątkiem nut na dodanych górnych	!	!LO:TX:b:t=Ag(n)us Dei	!	!	!	!	!	!LO:TX:b:t=Agnus Solo	!
!LO:TX:b:t=Agnus	!	!LO:TX:b:t=agnus Dei	!	!LO:TX:a:t=andante	!	!LO:TX:a:t=Agnus Dei\n Tacet	!	!LO:TX:a:t=adag	!	!LO:TX:a:B:t=Tacet	!LO:TX:a:B:t=Tacet
8G\L	.	4gg\	.	4gg\	.	1ryy	.	00r	.	1ryy	1ryy
8G\	.	.	.	.	.	.	.	.	.	.	.
8G\	.	16g/LL	.	16g/LL	.	.	.	.	.	.	.
.	.	16a/	.	16a/	.	.	.	.	.	.	.
8G\J	.	16b-/	.	16b-/	.	.	.	.	.	.	.
.	.	16cc/JJ	.	16cc/JJ	.	.	.	.	.	.	.
8G\L	.	8dd\	.	8dd\	.	.	.	.	.	.	.
8A\	.	4gg\	.	4gg\	.	.	.	.	.	.	.
8B-\	.	.	.	.	.	.	.	.	.	.	.
8c\J	.	8ee-\	.	8ee-\	.	.	.	.	.	.	.
!	!	!	!	!LO:LB:g=original	!	!	!	!	!	!	!
=2	=2	=2	=2	=2	=2	=2	=2	=2	=2	=2	=2
8G\L	.	8dd\	.	8dd\	.	1ryy	.	.	.	1ryy	1ryy
8A\	.	4gg\	.	4gg\	.	.	.	.	.	.	.
8B-\	.	.	.	.	.	.	.	.	.	.	.
8c\J	.	8ee-\	.	8ee-\	.	.	.	.	.	.	.
8G\L	.	8.dd\L	.	8.ddm\L	.	.	.	.	.	.	.
8A\	.	.	.	.	.	.	.	.	.	.	.
.	.	(32een\LL	.	(32een\LL	.	.	.	.	.	.	.
.	.	32ff#X\JJJ)	.	32ff#X\JJJ)	.	.	.	.	.	.	.
8B-\	.	8gg\L	.	8gg\L	.	.	.	.	.	.	.
8c\J	.	8aa\J	.	8aa\J	.	.	.	.	.	.	.
=3	=3	=3	=3	=3	=3	=3	=3	=3	=3	=3	=3
.	.	8qqgg/	.	8qqgg/	.	.	.	.	.	.	.
8d\L	.	8ff#X\	.	8ff#X\	.	1ryy	.	.	.	1ryy	1ryy
8F#X\	.	4cc\	.	4ee-X\	.	.	.	.	.	.	.
8D\	.	.	.	.	.	.	.	.	.	.	.
*	*	*custos	*	*	*	*	*	*	*	*	*
!	!	!LO:TX:a:t=P:problem=wszystkie custos użyte jako łamanie pięciolinii	!	!	!	!	!	!	!	!	!
!	!	!LO:LB:g=original	!	!	!	!	!	!	!	!	!
8D\J	.	(16b-/LL	.	(16dd\LL	.	.	.	.	.	.	.
.	.	16a/JJ)	.	16cc\JJ)	.	.	.	.	.	.	.
!LO:TX:a:t=P:problem=mixed beam	!	!	!	!	!	!	!	!	!	!	!
8G\L	.	8g/	.	8b-\	.	.	.	.	.	.	.
8G\	.	4gg\	.	4bb-\	.	.	.	.	.	.	.
8C/	.	.	.	.	.	.	.	.	.	.	.
8C/J	.	16ff#X\LL	.	(16aa\LL	.	.	.	.	.	.	.
.	.	16ee-X\JJ	.	16gg\JJ)	.	.	.	.	.	.	.
=4	=4	=4	=4	=4	=4	=4	=4	=4	=4	=4	=4
8D\L	.	16dd\LL	.	16ff#X\LL	.	1ryy	.	.	.	1ryy	1ryy
.	.	16ff#X\JJ	.	16aa\JJ	.	.	.	.	.	.	.
8D\	.	4a/	.	4cc\	.	.	.	.	.	.	.
8D\	.	.	.	.	.	.	.	.	.	.	.
8D\J	.	16g/LL	.	(16b-/LL	.	.	.	.	.	.	.
!	!	!LO:SIC:s=16f#:v	!	!	!	!	!	!	!	!	!
.	.	16f/JJ	.	16a/JJ)	.	.	.	.	.	.	.
*	*	*Xtuplet	*	*Xtuplet	*	*	*	*	*	*	*
!LO:TX:a:t=P:problem=mixed beam	!	!	!	!	!	!	!	!	!	!	!
8G\L	.	24g/LL	.	24b-\LL	.	.	.	.	.	.	.
.	.	24dd/	.	24dd\	.	.	.	.	.	.	.
.	.	24cc/JJ	.	24cc\JJ	.	.	.	.	.	.	.
8C\	.	24b-/LL	.	24b-/LL	.	.	.	.	.	.	.
.	.	24a/	.	24a/	.	.	.	.	.	.	.
.	.	24g/JJ	.	24g/JJ	.	.	.	.	.	.	.
8D\	.	4am/	.	4am/	.	.	.	.	.	.	.
8DD/J	.	.	.	.	.	.	.	.	.	.	.
=5	=5	=5	=5	=5	=5	=5	=5	=5	=5	=5	=5
*	*	*	*	*	*below	*	*	*	*	*	*
!LO:TX:a:t=P:problem=mixed beam	!LO:DY:a	!	!	!LO:TX:a:t=P:problem=mixed beam	!	!	!	!LO:TX:a:t=P:problem=wszystkie caudy z prawej strony z wyjątkiem nut na dodanych górnych	!	!	!
8GG/L	p	8g/	p	8g/L	p	1ryy	.	4gg\	A-	1ryy	1ryy
8G\	.	8b-/	.	8gg\J	.	.	.	.	.	.	.
!	!	!	!	!	!	!	!	!LO:TX:a:i:t=Solo	!	!	!
8G\	.	(16g/LL	.	16g/LL	.	.	.	16g\LL	-gnus	.	.
.	.	16f#X/)	.	16a/	.	.	.	16a\JJ	.	.	.
8G\J	.	16g/	.	16b-/	.	.	.	16b-\LL	.	.	.
.	.	16a/JJ	.	16cc/JJ	.	.	.	16cc\JJ	.	.	.
8G\L	.	8b-\	.	8dd\	.	.	.	8dd\	De-	.	.
8G\	.	4b-\	.	4gg\	.	.	.	4gg\	-i	.	.
8G\	.	.	.	.	.	.	.	.	.	.	.
8G\J	.	8cc\	.	8ee-\	.	.	.	8ee-\	qui	.	.
!	!	!	!	!LO:LB:g=original	!	!	!	!	!	!	!
=6	=6	=6	=6	=6	=6	=6	=6	=6	=6	=6	=6
8G\L	.	8b-\	.	8dd\	.	1ryy	.	8dd\	tol-	1ryy	1ryy
8G\	.	4b-\	.	4gg\	.	.	.	4gg\	.	.	.
8G\	.	.	.	.	.	.	.	.	.	.	.
8G\J	.	8cc\	.	8ee-\	.	.	.	8ee-\	-lis	.	.
8G\L	.	8b-/L	.	8dd\L	.	.	.	8dd\L	pec-	.	.
8G\	.	16a/L	.	(16cc\L	.	.	.	16cc\L	.	.	.
.	.	16g/JJ	.	16b-\JJ)	.	.	.	16b-\JJ	.	.	.
8D\	.	8a/L	.	8cc\L	.	.	.	8cc\	.	.	.
8D\J	.	16g/L	.	(16b-\L	.	.	.	16b-\LL	-ca-	.	.
.	.	16f#X/JJ	.	16a\JJ)	.	.	.	16a\JJ	-ta	.	.
!LO:LB:g=original	!	!	!	!	!	!	!	!LO:LB:g=original	!	!	!
=7	=7	=7	=7	=7	=7	=7	=7	=7	=7	=7	=7
8G\L	.	4g/	.	16b-/LL	.	1ryy	.	16b-\LL	mun-	1ryy	1ryy
.	.	.	.	16a/J	.	.	.	16a\JJ	.	.	.
8G\	.	.	.	8g/J	.	.	.	8g\	-di	.	.
8G\	.	8b-/L	.	8dd\L	.	.	.	8dd\	par-	.	.
8G\J	.	8b-/J	.	8dd\J	.	.	.	8g\	-ce	.	.
*	*	*custos	*	*	*	*	*	*	*	*	*
!	!	!LO:LB:g=original	!	!	!	!	!	!	!	!	!
8C/L	.	8cc\L	.	8ee-\L	.	.	.	4ee-\	no-	.	.
8C/	.	8cc\	.	8ee-\	.	.	.	.	.	.	.
8C/	.	8cc\	.	8ee-\	.	.	.	16ee-\LL	.	.	.
.	.	.	.	.	.	.	.	16cc\JJ	.	.	.
8C/J	.	8cc\J	.	8ee-\J	.	.	.	16a\LL	-bis	.	.
.	.	.	.	.	.	.	.	16g\JJ	.	.	.
=8	=8	=8	=8	=8	=8	=8	=8	=8	=8	=8	=8
8F\L	.	8cc\L	.	8ee-\L	.	1ryy	.	8f/	Do-	1ryy	1ryy
8F\	.	8cc\	.	8ee-\	.	.	.	4ee-\	.	.	.
8F\	.	8cc\	.	8ee-\	.	.	.	.	.	.	.
8F\J	.	8cc\J	.	8ee-\J	.	.	.	16dd\LL	-mi-	.	.
.	.	.	.	.	.	.	.	16cc\JJ	.	.	.
8BB-/L	.	8b-\	.	8dd\	.	.	.	8dd\	-ne	.	.
8BB-/	.	4ee-\	.	4gg\	.	.	.	4gg\	par-	.	.
8BB-/	.	.	.	.	.	.	.	.	.	.	.
8BB-/J	.	(16dd\LL	.	(16ff\LL	.	.	.	16ff\LL	-ce	.	.
.	.	16cc\JJ)	.	16ee-\JJ)	.	.	.	16ee-\JJ	.	.	.
=9	=9	=9	=9	=9	=9	=9	=9	=9	=9	=9	=9
8BB-/L	.	8dd\	.	8ff\	.	1ryy	.	8ff\	no-	1ryy	1ryy
8BB-/	.	4dd\	.	4ff\	.	.	.	4ff\	-bis	.	.
8BB-/	.	.	.	.	.	.	.	.	.	.	.
8BB-/J	.	(16cc\LL	.	(16ee-\LL	.	.	.	16ee-\LL	Do-	.	.
.	.	16b-\JJ)	.	16dd\JJ)	.	.	.	16dd\JJ	.	.	.
8F\L	.	8cc\	.	8ee-\	.	.	.	8ee-\	.	.	.
8F\	.	4cc\	.	4ee-\	.	.	.	4ee-\	.	.	.
8F\	.	.	.	.	.	.	.	.	.	.	.
8F\J	.	(16b-\LL	.	(16dd\LL	.	.	.	16dd\LL	.	.	.
.	.	16a\JJ)	.	16cc\JJ)	.	.	.	16cc\JJ	.	.	.
=10	=10	=10	=10	=10	=10	=10	=10	=10	=10	=10	=10
8BB-/L	.	8b-\L	.	8dd\L	.	1ryy	.	16dd\LL	.	1ryy	1ryy
.	.	.	.	.	.	.	.	16ff\	.	.	.
8BB-/	.	8b-\	.	8dd\	.	.	.	16ee-\	.	.	.
.	.	.	.	.	.	.	.	16dd\JJ	.	.	.
8F/	.	8a\	.	8cc\	.	.	.	16cc\LL	-mi-	.	.
.	.	.	.	.	.	.	.	16ff\JJ	.	.	.
8F/J	.	8a\J	.	8cc\J	.	.	.	16cc\LL	.	.	.
.	.	.	.	.	.	.	.	16a\JJ	.	.	.
!	!	!	!	!	!LO:DY:a	!	!	!	!	!	!
8BB-/L	.	8b-\	f	8b-\	f	.	.	4b-\	-ne	.	.
!	!LO:DY:a	!	!	!	!	!	!	!	!	!	!
8BB-/	f	4dd\	.	4bb-\	.	.	.	.	.	.	.
8BB-/	.	.	.	.	.	.	.	4r	.	.	.
8BB-/J	.	16ff\LL	.	(16aa\LL	.	.	.	.	.	.	.
.	.	16ee-\JJ	.	16gg\JJ)	.	.	.	.	.	.	.
!	!	!	!	!LO:LB:g=original	!	!	!	!LO:LB:g=original	!	!	!
=11	=11	=11	=11	=11	=11	=11	=11	=11	=11	=11	=11
!LO:TX:a:t=P:problem=mixed beam	!	!	!	!	!	!	!	!	!	!	!
8BB-/L	.	8dd\	.	(16ff\LL	.	1ryy	.	1r	.	1ryy	1ryy
.	.	.	.	16bb-\JJ)	.	.	.	.	.	.	.
8F\	.	4cc\	.	4ee-\	.	.	.	.	.	.	.
8F\	.	.	.	.	.	.	.	.	.	.	.
8F\J	.	(16b-\LL	.	16dd\LL	.	.	.	.	.	.	.
.	.	16a\JJ)	.	16cc\JJ	.	.	.	.	.	.	.
!LO:TX:a:t=P:problem=mixed beam	!LO:TUP:a:problem=klamra łukowa	!	!	!LO:TUP:a:problem=klamra łukowa	!	!	!	!	!	!	!
8BB-\L	.	24dd\LL	.	24dd\LL	.	.	.	.	.	.	.
.	.	24ee-\	.	24ee-\	.	.	.	.	.	.	.
.	.	24ff\JJ	.	24ff\JJ	.	.	.	.	.	.	.
!	!	!	!	!LO:TUP:a:problem=klamra łukowa	!	!	!	!	!	!	!
8E-\	.	24gg\LL	.	24gg\LL	.	.	.	.	.	.	.
.	.	24aa\	.	24aa\	.	.	.	.	.	.	.
.	.	24bb-\JJ	.	24bb-\JJ	.	.	.	.	.	.	.
8F\	.	8b-\L	.	8b-\L	.	.	.	.	.	.	.
8FF/J	.	8ccM\J	.	8ccM\J	.	.	.	.	.	.	.
=12	=12	=12	=12	=12	=12	=12	=12	=12	=12	=12	=12
!	!LO:DY:a	!	!LO:DY:a	!	!	!	!	!	!	!	!
8BB-/L	p	8b-\L	p	8b-\L	p	1ryy	.	8b-\L	A-	1ryy	1ryy
8BB-/	.	8dd\	.	8ff\	.	.	.	8ff\J	.	.	.
8BB-/	.	8dd\	.	8ff\	.	.	.	16ff\LL	-gnus	.	.
.	.	.	.	.	.	.	.	16dd\JJ	.	.	.
8BB-/J	.	8dd\J	.	8ff\J	.	.	.	16cc\LL	De-	.	.
.	.	.	.	.	.	.	.	16b-\JJ	.	.	.
*	*	*	*	*	*	*	*	*Xtuplet	*	*	*
8BB-/L	.	8ee-\L	.	8gg\L	.	.	.	24ee-\LL	-i	.	.
.	.	.	.	.	.	.	.	24ff\	.	.	.
.	.	.	.	.	.	.	.	24gg\JJ	.	.	.
8BB-/	.	8dd\	.	8ff\	.	.	.	8ff\	.	.	.
8BB-/	.	8dd\	.	8ff\	.	.	.	8r	.	.	.
8BB-/J	.	8dd\J	.	8ff\J	.	.	.	8ff\	qui	.	.
!	!	!LO:LB:g=original	!	!	!	!	!	!	!	!	!
=13	=13	=13	=13	=13	=13	=13	=13	=13	=13	=13	=13
8F\L	.	8cc\L	.	8ee-\L	.	1ryy	.	16ee-\LL	tol-	1ryy	1ryy
.	.	.	.	.	.	.	.	16dd\JJ	.	.	.
8F\	.	8cc\	.	8ee-\	.	.	.	16cc\	-lis	.	.
.	.	.	.	.	.	.	.	16b-\	pec-	.	.
8F\	.	8cc\	.	8ee-\	.	.	.	16a\LL	-ca-	.	.
.	.	.	.	.	.	.	.	16g\JJ	.	.	.
8F\J	.	8cc\J	.	8ee-\J	.	.	.	16f/LL	-ta	.	.
.	.	.	.	.	.	.	.	16e-/JJ	.	.	.
!LO:TX:a:t=P:problem=mixed beam	!	!	!	!	!	!	!	!	!	!	!
8BB-/L	.	8cc\L	.	8ee-\L	.	.	.	8e-/	mun-	.	.
8BB-/	.	8b-\	.	8dd\	.	.	.	8d/	-di	.	.
8G\	.	8b-\	.	8dd\	.	.	.	4dd\	pec-	.	.
!	!	!	!	!LO:TX:b:t=Verte Citissime	!	!	!	!	!	!	!
8G\J	.	8b-\J	.	8dd\J	.	.	.	.	.	.	.
!LO:LB:g=original	!	!	!	!LO:PB:g=original	!	!	!	!	!	!	!
=14	=14	=14	=14	=14	=14	=14	=14	=14	=14	=14	=14
8C#X/L	f	4gg\	.	4bb-\	.	1ryy	.	4gg\	-ca-	1ryy	1ryy
8C#/	.	.	.	.	.	.	.	.	.	.	.
8C#/	.	4gg\	.	4bb-\	.	.	.	4gg\	-ta	.	.
8C#/J	.	.	.	.	.	.	.	.	.	.	.
8D\L	.	4ff#X\	.	4aa\	.	.	.	16ff#X\LL	mun-	.	.
.	.	.	.	.	.	.	.	16een\JJ	-di	.	.
8D\	.	.	.	.	.	.	.	8dd\	ex-	.	.
8G\	.	16r	.	16r	.	.	.	4ee-X\	-au-	.	.
!	!	!	!	!	!LO:DY:a	!	!	!	!	!	!
.	.	(16cc\LL	.	(16ee-\LL	p	.	.	.	.	.	.
8G\J	.	16b-\	.	16dd\	.	.	.	.	.	.	.
.	.	16a\JJ)	.	16cc\JJ)	.	.	.	.	.	.	.
!	!	!	!	!	!	!	!	!LO:LB:g=original	!	!	!
=15	=15	=15	=15	=15	=15	=15	=15	=15	=15	=15	=15
!LO:TX:a:t=P:problem=brak taktu	!	!	!	!	!	!	!	!	!	!	!
1ryy	.	16r	.	16r	.	1ryy	.	4dd\	-di	1ryy	1ryy
.	.	(16b-/LL	.	(16dd\LL	.	.	.	.	.	.	.
.	.	16a/	.	16cc\	.	.	.	.	.	.	.
.	.	16g/JJ)	.	16b-\JJ)	.	.	.	.	.	.	.
.	.	16r	.	16r	.	.	.	4cc\	ex-	.	.
.	.	16a/LL	.	(16cc\LL	.	.	.	.	.	.	.
.	.	16g/	.	16b-\	.	.	.	.	.	.	.
.	.	16f#X/JJ	.	16a\JJ)	.	.	.	.	.	.	.
.	.	16r	.	16r	.	.	.	4b-\	-au-	.	.
.	.	16g/LL	.	(16b-\LL	.	.	.	.	.	.	.
.	.	16f#X/	.	16a\	.	.	.	.	.	.	.
.	.	16g/JJ	.	16b-\JJ)	.	.	.	.	.	.	.
.	.	16r	.	16r	.	.	.	4ee-\	.	.	.
.	.	16cc\LL	.	(16ee-\LL	.	.	.	.	.	.	.
.	.	16b-\	.	16dd\	.	.	.	.	.	.	.
.	.	16a\JJ	.	16cc\JJ)	.	.	.	.	.	.	.
=16	=16	=16	=16	=16	=16	=16	=16	=16	=16	=16	=16
8G\L	.	16r	.	16r	.	1ryy	.	4dd\	-di	1ryy	1ryy
.	.	16b-/LL	.	(16dd\LL	.	.	.	.	.	.	.
8G\	.	16a/	.	16cc\	.	.	.	.	.	.	.
.	.	16g/JJ	.	16b-\JJ)	.	.	.	.	.	.	.
8D\	.	16r	.	16r	.	.	.	4cc\	nos	.	.
.	.	16a/LL	.	(16cc\LL	.	.	.	.	.	.	.
8D\J	.	16g/	.	16b-\	.	.	.	.	.	.	.
.	.	16f#X/JJ	.	16a\JJ)	.	.	.	.	.	.	.
8G\L	.	8g/L	.	8b-\L	.	.	.	8b-\	ex-	.	.
8C#X\	.	8en/	.	8b-\	.	.	.	8b-\	-au-	.	.
8C#\	.	8e/	.	8b-\	.	.	.	8b-\	-di	.	.
8C#\J	.	8e/J	.	8b-\J	.	.	.	16a\LL	.	.	.
.	.	.	.	.	.	.	.	16g\JJ	.	.	.
=17	=17	=17	=17	=17	=17	=17	=17	=17	=17	=17	=17
8D\L	.	8f#X/	.	8a/	.	1ryy	.	8f#X/	nos	1ryy	1ryy
8F#X\	.	4cc\	.	(16ee-\LL	.	.	.	4ee-X\	Do-	.	.
.	.	.	.	16dd\JJ)	.	.	.	.	.	.	.
8F#\	.	.	.	8ee-\	.	.	.	.	.	.	.
8F#\J	.	(16b-\LL	.	(16dd\LL	.	.	.	16dd\LL	.	.	.
.	.	16a\JJ)	.	16cc\JJ)	.	.	.	16cc\JJ	.	.	.
!LO:TX:a:t=P:problem=mixed beam	!	!LO:LB:g=original	!	!	!	!	!	!	!	!	!
8G\L	.	4g/	.	4b-/	.	.	.	8b-\	.	.	.
8GG/	.	.	.	.	.	.	.	16a\LL	.	.	.
.	.	.	.	.	.	.	.	16g\JJ	.	.	.
8D/	.	4f#Xm/	.	4am/	.	.	.	8.a\	.	.	.
8D/J	.	.	.	.	.	.	.	.	.	.	.
.	.	.	.	.	.	.	.	16a\	-mi-	.	.
=18	=18	=18	=18	=18	=18	=18	=18	=18	=18	=18	=18
!	!	!	!	!	!LO:DY:rj	!	!	!	!	!	!
8G\L	.	4gg\	.	4gg\	f	1ryy	.	4g\	-ne	1ryy	1ryy
8G\	.	.	.	.	.	.	.	.	.	.	.
8G\	.	16g/LL	.	16g/LL	.	.	.	4r	.	.	.
.	.	16a/	.	16a/	.	.	.	.	.	.	.
8G\J	.	16b-/	.	16b-/	.	.	.	.	.	.	.
.	.	16cc/JJ	.	16cc/JJ	.	.	.	.	.	.	.
8G\L	.	8dd\	.	8dd\	.	.	.	2r	.	.	.
8A\	.	4gg\	.	4gg\	.	.	.	.	.	.	.
8B-\	.	.	.	.	.	.	.	.	.	.	.
8c\J	.	8ee-\	.	8ee-\	.	.	.	.	.	.	.
!	!	!	!	!LO:LB:g=original	!	!	!	!	!	!	!
=19	=19	=19	=19	=19	=19	=19	=19	=19	=19	=19	=19
8G\L	.	8dd\	.	8dd\	.	1ryy	.	00r	.	1ryy	1ryy
8A\	.	4gg\	.	4gg\	.	.	.	.	.	.	.
8B-\	.	.	.	.	.	.	.	.	.	.	.
8c\J	.	8ee-\	.	8ee-\	.	.	.	.	.	.	.
8G\L	.	8.dd\L	.	8.dd\L	.	.	.	.	.	.	.
8A\	.	.	.	.	.	.	.	.	.	.	.
.	.	(32een\LL	.	(32een\LL	.	.	.	.	.	.	.
.	.	32ff#X\JJJ)	.	32ff#X\JJJ)	.	.	.	.	.	.	.
8B-\	.	8gg\L	.	8gg\L	.	.	.	.	.	.	.
8c\J	.	8aa\J	.	8aa\J	.	.	.	.	.	.	.
=20	=20	=20	=20	=20	=20	=20	=20	=20	=20	=20	=20
.	.	8qqgg/	.	.	.	.	.	.	.	.	.
8d\L	.	8ff#X\	.	8ff#X\	.	1ryy	.	.	.	1ryy	1ryy
8F#X\	.	4cc\	.	4ee-X\	.	.	.	.	.	.	.
8F#\	.	.	.	.	.	.	.	.	.	.	.
8F#\J	.	(16b-\LL	.	16dd\LL	.	.	.	.	.	.	.
.	.	16a\JJ)	.	16cc\JJ	.	.	.	.	.	.	.
!LO:TX:a:t=P:problem=mixed beam	!	!	!	!	!	!	!	!	!	!	!
8G\L	.	8g/	.	8b-\	.	.	.	.	.	.	.
8G\	.	4gg\	.	4bb-\	.	.	.	.	.	.	.
8C/	.	.	.	.	.	.	.	.	.	.	.
8C/J	.	16ff#X\LL	.	16aa\LL	.	.	.	.	.	.	.
.	.	16ee-\JJ	.	16gg\JJ	.	.	.	.	.	.	.
=21	=21	=21	=21	=21	=21	=21	=21	=21	=21	=21	=21
8D\L	.	16dd\LL	.	16ff#X\LL	.	1ryy	.	.	.	1ryy	1ryy
.	.	16ff#X\JJ	.	16aa\JJ	.	.	.	.	.	.	.
8D\	.	4a/	.	4cc\	.	.	.	.	.	.	.
8D\	.	.	.	.	.	.	.	.	.	.	.
8D\J	.	16g/LL	.	16b-\LL	.	.	.	.	.	.	.
!	!	!LO:SIC:s=16f#:v	!	!	!	!	!	!	!	!	!
.	.	16f/JJ	.	16a\JJ	.	.	.	.	.	.	.
!LO:LB:g=original	!	!	!	!	!	!	!	!	!	!	!
!LO:TX:a:t=P:problem=mixed beam	!	!	!	!	!	!	!	!	!	!	!
8G\L	.	24g/LL	.	24b-\LL	.	.	.	.	.	.	.
.	.	24dd/	.	24dd\	.	.	.	.	.	.	.
.	.	24cc/JJ	.	24cc\JJ	.	.	.	.	.	.	.
8C\	.	24b-\LL	.	24b-\LL	.	.	.	.	.	.	.
.	.	24a\	.	24a\	.	.	.	.	.	.	.
.	.	24g\JJ	.	24g\JJ	.	.	.	.	.	.	.
8D\	.	4am/	.	4am/	.	.	.	.	.	.	.
8DD/J	.	.	.	.	.	.	.	.	.	.	.
!	!	!LO:LB:g=original	!	!	!	!	!	!	!	!	!
=22	=22	=22	=22	=22	=22	=22	=22	=22	=22	=22	=22
4GG/	.	4g/	.	4g/	.	1ryy	.	.	.	1ryy	1ryy
4r	.	4r	.	4r	.	.	.	.	.	.	.
2r	.	2r	.	2r	.	.	.	.	.	.	.
!	!	!	!	!LO:LB:g=original	!	!	!	!LO:LB:g=original	!	!	!
=23||	=23||	=23||	=23||	=23||	=23||	=23||	=23||	=23||	=23||	=23||	=23||
*k[]	*	*k[]	*	*k[]	*	*k[]	*	*k[]	*	*k[]	*k[]
*C:	*	*C:	*	*C:	*	*C:	*	*C:	*	*C:	*C:
*M2/4	*	*M2/4	*	*M2/4	*	*M2/4	*	*M2/4	*	*M2/4	*M2/4
!LO:TX:a:t=P:problem=kasowniki En Bn BBn	!	!	!	!	!	!	!	!	!	!LO:TX:a:t=P:problem=all\right&colon; global	!LO:TX:a:t=P:problem=all\right&colon; global
!	!	!	!	!LO:TX:b:t=Agnus Dei	!	!	!	!	!	!LO:TX:a:t=Tutti	!
!	!	!LO:TX:b:t=Agnus	!	!LO:TX:a:B:t=allo aſsai	!	!	!	!LO:TX:a:t=allegro	!	!LO:TX:b:B:t=Agnus	!LO:TX:b:B:t=Agnus
!	!	!	!	!	!	!LO:N:vis=00	!	!LO:N:vis=00	!	!	!
4C/	.	4ee 4cc 4g 4c/	.	4ee 4cc 4g 4c/	.	0r	.	0r	.	4cc\	4ee\
4C/	.	4ee 4cc 4g 4c/	.	4ee 4cc 4g 4c/	.	.	.	.	.	4cc\	4ee\
=24	=24	=24	=24	=24	=24	=24	=24	=24	=24	=24	=24
!	!	!	!	!LO:N:vis=4	!	!	!	!	!	!	!
4C/	.	8ee 8cc 8g 8c/	.	8ee 8cc 8g 8c/	.	.	.	.	.	4cc\	4ee\
.	.	8gg\L	.	8gg\L	.	.	.	.	.	.	.
4r	.	8ee\	.	8ee\	.	.	.	.	.	4r	4r
.	.	8cc\J	.	8cc\J	.	.	.	.	.	.	.
=25	=25	=25	=25	=25	=25	=25	=25	=25	=25	=25	=25
4F\	.	8a\L	.	8a\L	.	.	.	.	.	4dd\	4ff\
.	.	8ff\	.	8aa\	.	.	.	.	.	.	.
4G\	.	8ee\	.	8gg\	.	.	.	.	.	4g/	4dd\
.	.	8dd\J	.	8ff\J	.	.	.	.	.	.	.
=26	=26	=26	=26	=26	=26	=26	=26	=26	=26	=26	=26
!	!	!	!	!LO:TX:a:t=P:problem=mixed beam	!	!	!	!	!	!	!
4C/	.	8cc/L	.	8ee\L	.	.	.	.	.	4cc\	4ee\
.	.	8g/	.	8g/J	.	.	.	.	.	.	.
4r	.	8e/	.	8e/L	.	.	.	.	.	4r	4r
.	.	8c/J	.	8c/J	.	.	.	.	.	.	.
!	!	!	!	!	!	!	!	!	!	!	!LO:LB:g=original
=27	=27	=27	=27	=27	=27	=27	=27	=27	=27	=27	=27
!	!	!	!	!	!	!LO:N:vis=00	!	!LO:N:vis=00	!	!	!
4F\	.	8A/L	.	8A/L	.	0r	.	0r	.	4dd\	4ff\
.	.	8f/	.	8a/	.	.	.	.	.	.	.
4G\	.	8e/	.	8g/	.	.	.	.	.	4g/	4dd\
.	.	8d/J	.	8f/J	.	.	.	.	.	.	.
!	!	!	!	!	!	!	!	!	!	!LO:LB:g=original	!
=28	=28	=28	=28	=28	=28	=28	=28	=28	=28	=28	=28
!	!	!	!	!LO:TX:a:t=P:problem=mixed beam	!	!	!	!	!	!	!
8C/L	.	8c/L	.	8e/L	.	.	.	.	.	4cc\	4ee\
8C/	.	8g/	.	8cc\J	.	.	.	.	.	.	.
8C/	.	8cc/	.	8ee\L	.	.	.	.	.	4r	4r
8C/J	.	8g/J	.	8cc\J	.	.	.	.	.	.	.
=29	=29	=29	=29	=29	=29	=29	=29	=29	=29	=29	=29
!	!	!	!	!	!	!	!	!	!	!LO:TX:a:t=P:problem=8\right&colon; global	!LO:TX:a:t=P:problem=8\right&colon; global
8C/L	.	8ee\L	.	8gg\L	.	.	.	.	.	8cc\L	8ee\L
8C/	.	8cc\	.	8ee\	.	.	.	.	.	8cc\	8ee\
8C/	.	8gg\	.	8ccc\	.	.	.	.	.	8cc\	8ee\
8C/J	.	8ee\J	.	8gg\J	.	.	.	.	.	8cc\J	8ee\J
=30	=30	=30	=30	=30	=30	=30	=30	=30	=30	=30	=30
8G\L	.	8dd\L	.	8ff\L	.	.	.	.	.	4dd\	4ff\
8G\	.	8g\	.	8b\	.	.	.	.	.	.	.
8G\	.	8b\	.	8dd\	.	.	.	.	.	4r	4r
8G\J	.	8g\J	.	8b\J	.	.	.	.	.	.	.
=31	=31	=31	=31	=31	=31	=31	=31	=31	=31	=31	=31
!	!	!	!	!	!	!LO:N:vis=00	!	!LO:N:vis=00	!	!	!
8G\L	.	8dd\L	.	8ff\L	.	0r	.	0r	.	8g/L	8dd\L
8G\	.	8b\	.	8dd\	.	.	.	.	.	8g/	8dd\
8G\	.	8ff\	.	8ddd\	.	.	.	.	.	8g/	8dd\
8G\J	.	8dd\J	.	8ff\J	.	.	.	.	.	8g/J	8dd\J
!LO:LB:g=original	!	!LO:LB:g=original	!	!	!	!	!	!	!	!	!
=32	=32	=32	=32	=32	=32	=32	=32	=32	=32	=32	=32
!LO:TX:a:t=P:problem=brak nuty, prawdopodobnie C (uszkodzony papier)	!	!	!	!	!	!	!	!	!	!	!
8ryy	.	8cc\L	.	8ee\L	.	.	.	.	.	4cc\	4ee\
8c\L	.	8cc\	.	8cc\	.	.	.	.	.	.	.
8B\	.	8b\	.	8b\	.	.	.	.	.	4r	4r
8A\J	.	8a\J	.	8a\J	.	.	.	.	.	.	.
!	!	!	!	!LO:LB:g=original	!	!	!	!	!	!	!
=33	=33	=33	=33	=33	=33	=33	=33	=33	=33	=33	=33
!	!	!	!	!	!	!	!	!	!	!LO:TX:a:t=1	!
8G\L	.	8g/L	.	8g/L	.	.	.	.	.	2rff	2r
8F\	.	8f/	.	8f/	.	.	.	.	.	.	.
8E\	.	8e/	.	8e/	.	.	.	.	.	.	.
8D\J	.	8d/J	.	8d/J	.	.	.	.	.	.	.
=34	=34	=34	=34	=34	=34	=34	=34	=34	=34	=34	=34
8C/L	.	8c/L	.	8c/L	.	.	.	.	.	4cc\	4ee\
8E/J	.	8e/	.	8e/	.	.	.	.	.	.	.
8F\L	.	8f/	.	8f/	.	.	.	.	.	4g/	4dd\
8G\J	.	8g/J	.	8g/J	.	.	.	.	.	.	.
=35	=35	=35	=35	=35	=35	=35	=35	=35	=35	=35	=35
!	!	!	!	!	!	!LO:TX:a:t=P:problem=all\right&colon; global	!	!	!	!	!
4C/	.	4ee 4g 4c/	.	4ee 4cc 4g 4c/	.	8c\	A-	8ee\	A-	4cc\	4ee\
.	.	.	.	.	.	8c\	-gnus	8ee\	-gnus	.	.
4C/	.	4ee 4g 4c/	.	4ee 4cc 4g 4c/	.	4c\	De-	4ee\	De-	4cc\	4ee\
=36	=36	=36	=36	=36	=36	=36	=36	=36	=36	=36	=36
4C/	.	8ee 8cc 8g 8c/	.	8ee 8cc 8g 8c/	.	4c\	-i	4ee\	-i	4cc\	4ee\
.	.	8gg\L	.	8gg\L	.	.	.	.	.	.	.
4r	.	8ee\	.	8ee\	.	4r	.	4r	.	4r	4r
.	.	8cc\J	.	8cc\J	.	.	.	.	.	.	.
=37	=37	=37	=37	=37	=37	=37	=37	=37	=37	=37	=37
4F\	.	8a\L	.	8a\L	.	4d\	Qui	4ff\	Qui	4dd\	4ff\
.	.	8ff\	.	8aa\	.	.	.	.	.	.	.
4G\	.	8ee\	.	8gg\	.	4B\	tol-	4dd\	tol-	4g/	4dd\
.	.	8dd\J	.	8ff\J	.	.	.	.	.	.	.
=38	=38	=38	=38	=38	=38	=38	=38	=38	=38	=38	=38
!	!	!	!	!LO:TX:a:t=P:problem=mixed beam	!	!	!	!	!	!	!
4C/	.	8cc\L	.	8ee\L	.	4c\	-lis	4ee\	-lis	4cc\	4ee\
.	.	8g\J	.	8g/J	.	.	.	.	.	.	.
4r	.	8e/L	.	8e/L	.	4r	.	4r	.	4r	4r
.	.	8c/J	.	8c/J	.	.	.	.	.	.	.
!	!	!	!	!	!	!LO:LB:g=original	!	!	!	!	!
=39	=39	=39	=39	=39	=39	=39	=39	=39	=39	=39	=39
4F\	.	8A/L	.	8A/L	.	4d\	pec-	4ff\	pec-	4dd\	4ff\
.	.	8f/	.	8a/	.	.	.	.	.	.	.
4G\	.	8e/	.	8g/	.	4B\	.	4dd\	-ca-	4g/	4dd\
.	.	8d/J	.	8f/J	.	.	.	.	.	.	.
=40	=40	=40	=40	=40	=40	=40	=40	=40	=40	=40	=40
!	!	!	!	!LO:TX:a:t=P:problem=mixed beam	!	!	!	!	!	!	!
4C/	.	8c/L	.	8e/L	.	4c\	-ca-	4ee\	-ta	4cc\	4ee\
.	.	8g/J	.	8cc\J	.	.	.	.	.	.	.
*	*	*	*	*	*	*	*	*	*ij	*	*
4C/	.	8cc\L	.	8ee\L	.	4c\	.	4ee\	pec-	4cc\	4ee\
.	.	8ee\J	.	8gg\J	.	.	.	.	.	.	.
=41	=41	=41	=41	=41	=41	=41	=41	=41	=41	=41	=41
4C/	.	8dd\L	.	16ccc\LL	.	4c\	-ta	4ee\	-ca-	8cc\L	8ee\L
.	.	.	.	16bb\	.	.	.	.	.	.	.
.	.	16aa\L	.	16aa\	.	.	.	.	.	8cc\	8ee\
.	.	16gg\JJ	.	16gg\JJ	.	.	.	.	.	.	.
4c\	.	16ff\LL	.	16ff\LL	.	4c\	.	4ee\	-ta	8cc\	8ee\
*	*	*	*	*	*	*	*	*	*Xij	*	*
.	.	16ee\	.	16ee\	.	.	.	.	.	.	.
.	.	16dd\	.	16dd\	.	.	.	.	.	8cc\J	8ee\J
.	.	16cc\JJ	.	16cc\JJ	.	.	.	.	.	.	.
!	!	!	!	!	!	!	!	!	!	!	!LO:LB:g=original
=42	=42	=42	=42	=42	=42	=42	=42	=42	=42	=42	=42
8G\L	.	8b\L	.	8b\L	.	8B\	mun-	8dd\	mun-	4g/	4dd\
8G\	.	8b\	.	8dd\	.	8B\	-di	8dd\	-di	.	.
8G\	.	8dd\	.	8gg\	.	8B\	mi-	8dd\	Mi-	4r	4r
8G\J	.	8gg\J	.	8bb\J	.	8B\	-se-	8dd\	-se-	.	.
!	!	!LO:LB:g=original	!	!LO:LB:g=original	!	!	!	!	!	!LO:LB:g=original	!
=43	=43	=43	=43	=43	=43	=43	=43	=43	=43	=43	=43
8D/L	.	8a/L	.	8cc\L	.	8A\	-re-	8cc\	-re-	8dd\L	8dd\L
8D/	.	8cc/	.	8aa\J	.	8A\	-re	8cc\	-re	8dd\	8dd\
*	*	*	*	*	*	*	*	*custos	*	*	*
!	!	!	!	!	!	!	!	!LO:TX:a:t=P:problem=wszystkie custos użyte jako łamanie pięciolinii	!	!	!
!	!	!	!	!LO:TX:a:t=P:problem=mixed beam	!	!	!	!LO:LB:g=original	!	!	!
8D/	.	8d/	.	8d/L	.	4A\	no-	4cc\	no-	8dd\	8dd\
8D/J	.	8a/J	.	8cc\J	.	.	.	.	.	8dd\J	8dd\J
=44	=44	=44	=44	=44	=44	=44	=44	=44	=44	=44	=44
8G\L	.	8g\L	.	8b\L	.	4G/	-bis	4b\	-bis	4g/	4dd\
8G\	.	8b\	.	8dd\	.	.	.	.	.	.	.
*	*	*	*	*	*	*	*ij	*	*	*	*
8G\	.	8dd\	.	8gg\	.	8B\	mi-	8dd\	Mi-	4r	4r
8G\J	.	8gg\J	.	8bb\J	.	8B\	-se-	8dd\	-se-	.	.
!LO:LB:g=original	!	!	!	!	!	!	!	!	!	!	!
=45	=45	=45	=45	=45	=45	=45	=45	=45	=45	=45	=45
8D\L	.	8a/L	.	8cc\L	.	8A/	-re-	8cc\	-re-	8dd\L	8dd\L
8D\	.	8cc/	.	8aa\J	.	8A/	-re	8cc\	-re	8dd\	8dd\
*	*	*	*	*	*	*	*Xij	*	*	*	*
!	!	!	!	!LO:TX:a:t=P:problem=mixed beam	!	!	!	!	!	!	!
8D\	.	8d/	.	8d/L	.	4A/	no-	4cc\	no-	8dd\	8dd\
8D\J	.	8a/J	.	8cc\J	.	.	.	.	.	8dd\J	8dd\J
=46	=46	=46	=46	=46	=46	=46	=46	=46	=46	=46	=46
4G\	.	8g\L	.	8b\L	.	4G/	-bis	4b\	-bis	4g/	4dd\
.	.	8b\	.	8dd\	.	.	.	.	.	.	.
*	*	*	*	*	*	*	*ij	*	*ij	*	*
4B\	.	8dd\	.	8gg\	.	8B\	mi-	8dd\	mi-	4r	4r
.	.	8b\J	.	8dd\J	.	8B\	-se-	8dd\	-se-	.	.
=47	=47	=47	=47	=47	=47	=47	=47	=47	=47	=47	=47
4c\	.	8cc\L	.	8ee\L	.	4c\	-re-	4ee\	-re-	4cc\	4ee\
.	.	8ee\	.	8aa\	.	.	.	.	.	.	.
4A\	.	8a\	.	8cc\	.	4c\	-re	4ee\	-re	4r	4r
.	.	8cc\J	.	8ee\J	.	.	.	.	.	.	.
!	!	!	!	!	!	!LO:LB:g=original	!	!	!	!	!
=48	=48	=48	=48	=48	=48	=48	=48	=48	=48	=48	=48
4B\	.	8b\L	.	8dd\L	.	4B\	mi-	4dd\	mi-	4g/	4dd\
.	.	8dd\	.	8gg\	.	.	.	.	.	.	.
4G\	.	8g\	.	8b\	.	4B\	-se-	4dd\	-se-	4r	4r
.	.	8b\J	.	8dd\J	.	.	.	.	.	.	.
=49	=49	=49	=49	=49	=49	=49	=49	=49	=49	=49	=49
4A\	.	8a\L	.	8cc\L	.	4A\	-re-	4cc\	-re-	4dd\	4dd\
.	.	8cc\	.	8ff#X\	.	.	.	.	.	.	.
4D\	.	8f#X\	.	8a\	.	4A\	-re	4cc\	-re	4r	4r
*	*	*	*	*	*	*	*Xij	*	*Xij	*	*
.	.	8a\J	.	8cc\J	.	.	.	.	.	.	.
=50	=50	=50	=50	=50	=50	=50	=50	=50	=50	=50	=50
!	!	!LO:TX:a:t=P:problem=mixed beam	!	!	!	!	!	!	!	!	!
8G\L	.	16g/LL	.	16b\LL	.	8G/	mi-	8b\	mi-	4g/	4dd\
.	.	16gg\	.	16gg\	.	.	.	.	.	.	.
8A\	.	16ff#X\	.	16ff#X\	.	8G/	-se-	8b\	-se-	.	.
.	.	16ee\JJ	.	16ee\JJ	.	.	.	.	.	.	.
8B\	.	8dd\L	.	8dd\L	.	8G/	-re-	8b\	-re-	4r	4r
8c\J	.	8cc\J	.	8cc\J	.	8A/	-re	8cc\	-re	.	.
=51	=51	=51	=51	=51	=51	=51	=51	=51	=51	=51	=51
4d\	.	8b\L	.	8b\L	.	4G/	no-	4b\	no-	4dd\	4dd\
.	.	8gg\	.	8gg\	.	.	.	.	.	.	.
4D/	.	8a\	.	8a\	.	4F#X/	.	4aM\	.	4dd\	4dd\
.	.	8ff#X\J	.	8ff#X\J	.	.	.	.	.	.	.
=52	=52	=52	=52	=52	=52	=52	=52	=52	=52	=52	=52
4G\	.	4gg 4b 4d 4G/	.	4gg 4b 4d 4G/	.	4G/	-bis	4b\	-bis	4g/	4dd\
4G\	.	4gg 4b 4d 4G/	.	4gg 4b 4d 4G/	.	4r	.	4r	.	4g/	4dd\
!	!	!	!	!	!	!	!	!LO:LB:g=original	!	!	!
=53	=53	=53	=53	=53	=53	=53	=53	=53	=53	=53	=53
!	!	!	!	!	!	!LO:N:vis=0	!	!LO:N:vis=0	!	!	!
8G\L	.	8gg 8b 8d 8G/	.	8gg 8b 8d 8G/	.	1r	.	1r	.	4g/	4dd\
8G\	.	8gg\L	.	8gg\L	.	.	.	.	.	.	.
8F#X\	.	8ff#X\	.	8ff#X\	.	.	.	.	.	4r	4r
8E\J	.	8ee\J	.	8ee\J	.	.	.	.	.	.	.
=54	=54	=54	=54	=54	=54	=54	=54	=54	=54	=54	=54
!	!	!	!	!	!	!	!	!	!	!LO:TX:a:t=1	!LO:TX:a:t=1
8D/L	.	8dd\L	.	8dd\L	.	.	.	.	.	2r	2r
8C/	.	8cc\	.	8cc\	.	.	.	.	.	.	.
8BB/	.	8b\	.	8b\	.	.	.	.	.	.	.
8AA/J	.	8a\J	.	8a\J	.	.	.	.	.	.	.
!	!	!	!	!LO:LB:g=original	!	!	!	!	!	!	!
=55	=55	=55	=55	=55	=55	=55	=55	=55	=55	=55	=55
8GG/L	.	8g/L	.	8g/L	.	2r	.	2r	.	4g/	4dd\
8BB/	.	8b/	.	8b/	.	.	.	.	.	.	.
8C/	.	8cc/	.	8cc/	.	.	.	.	.	4dd\	4dd\
8D/J	.	8dd/J	.	8dd/J	.	.	.	.	.	.	.
!	!	!LO:LB:g=original	!	!	!	!	!	!	!	!	!
=56	=56	=56	=56	=56	=56	=56	=56	=56	=56	=56	=56
4GG/	.	4gg 4b 4d 4G/	.	4gg 4b 4d 4G/	.	8G/	A-	8b\	a-	4g/	4dd\
.	.	.	.	.	.	8G/	-gnus	8b\	-gn(us)	.	.
4GG/	.	4gg 4b 4d 4G/	.	4gg 4b 4d 4G/	.	4G/	De-	4b\	De-	4g/	4dd\
=57	=57	=57	=57	=57	=57	=57	=57	=57	=57	=57	=57
4GG/	.	8gg 8b 8d 8G/	.	8gg 8b 8d 8G/	.	4G/	-i	4b\	-i	4g/	4dd\
.	.	8dd\L	.	8dd\L	.	.	.	.	.	.	.
4r	.	8b\	.	8b\	.	4r	.	4r	.	4r	4r
.	.	8g\J	.	8g\J	.	.	.	.	.	.	.
!LO:LB:g=original	!	!	!	!	!	!	!	!	!	!LO:LB:g=original	!LO:LB:g=original
=58	=58	=58	=58	=58	=58	=58	=58	=58	=58	=58	=58
!	!	!LO:TX:a:t=P:problem=mixed beam	!	!LO:TX:a:t=P:problem=mixed beam	!	!	!	!	!	!	!
4C/	.	8e/L	.	8e/L	.	4c\	Qui	4ee\	Qui	4cc\	4ee\
.	.	8cc\	.	8ee\	.	.	.	.	.	.	.
4D/	.	8a\	.	8dd\	.	8B\L	tol-	8dd\L	tol-	4dd\	4dd\
!	!	!LO:SIC:s=8f#:v	!	!	!	!	!	!	!	!	!
.	.	8f\J	.	8cc\J	.	8A\J	.	8cc\J	.	.	.
=59	=59	=59	=59	=59	=59	=59	=59	=59	=59	=59	=59
4GG/	.	8g\L	.	8b\L	.	4G/	-lis	4b\	-lis	4g/	4dd\
.	.	8dd\	.	8dd\	.	.	.	.	.	.	.
4r	.	8b\	.	8b\	.	4r	.	4r	.	4r	4r
.	.	8g\J	.	8g\J	.	.	.	.	.	.	.
!	!	!	!	!	!	!LO:LB:g=original	!	!	!	!	!
=60	=60	=60	=60	=60	=60	=60	=60	=60	=60	=60	=60
!	!	!	!	!LO:TX:a:t=P:problem=mixed beam	!	!	!	!	!	!	!
4C/	.	8e/L	.	8e/L	.	4c\	pec-	4ee\	pec-	4cc\	4ee\
.	.	8e/	.	8cc\	.	.	.	.	.	.	.
4D/	.	8d/	.	8b\	.	8B\L	-ca-	8dd\L	-ca-	4dd\	4dd\
.	.	8c/J	.	8a\J	.	8A\J	.	8cc\J	.	.	.
=61	=61	=61	=61	=61	=61	=61	=61	=61	=61	=61	=61
4GG/	.	8B/L	.	8g/L	.	4G/	-ta	4b\	-ta	4g/	4dd\
.	.	8d/	.	8g/	.	.	.	.	.	.	.
*	*	*	*	*	*	*	*ij	*	*	*	*
4GG/	.	8g/	.	8b/	.	4G/	pec-	4b\	pec-	4g/	4dd\
.	.	8b/J	.	8dd/J	.	.	.	.	.	.	.
=62	=62	=62	=62	=62	=62	=62	=62	=62	=62	=62	=62
4GG/	.	8dd\L	.	16gg\LL	.	4G/	-ca-	4b\	-ca-	8g/L	8dd\L
.	.	.	.	16ff#X\	.	.	.	.	.	.	.
.	.	16ee\L	.	16ee\	.	.	.	.	.	8g/	8dd\
.	.	16dd\JJ	.	16dd\JJ	.	.	.	.	.	.	.
4G\	.	16cc\LL	.	16cc\LL	.	4G/	-ta	4b\	-ta	8g/	8dd\
.	.	16b\	.	16b\	.	.	.	.	.	.	.
.	.	16a\	.	16a\	.	.	.	.	.	8g/J	8dd\J
.	.	16g\JJ	.	16g\JJ	.	.	.	.	.	.	.
=63	=63	=63	=63	=63	=63	=63	=63	=63	=63	=63	=63
4D\	.	8f#X/L	.	8f#X/L	.	8F#X/	mun-	8a\	mun-	4dd\	4dd\
.	.	8f#/	.	8a/J	.	8F#/	-di	8a\	-di	.	.
*	*	*	*	*	*	*	*Xij	*	*	*	*
4D\	.	8a/	.	8cc\L	.	8A\	mi-	8cc\	Mi-	4r	4r
.	.	8cc/J	.	8ff#X\J	.	8A\	-se-	8cc\	-se-	.	.
=64	=64	=64	=64	=64	=64	=64	=64	=64	=64	=64	=64
4D\	.	8ff#X\L	.	16aa\LL	.	8A/	-re-	8cc\	-re-	8dd\L	8dd\L
.	.	.	.	16gg\	.	.	.	.	.	.	.
.	.	16ff#\L	.	16ff#X\	.	8A/	-re	8cc\	-re	8dd\	8dd\
.	.	16ee\JJ	.	16ee\JJ	.	.	.	.	.	.	.
4d\	.	16dd\LL	.	16dd\LL	.	4A/	no-	4cc\	no-	8dd\	8dd\
.	.	16cc\	.	16cc\	.	.	.	.	.	.	.
.	.	16b\	.	16b\	.	.	.	.	.	8dd\J	8dd\J
.	.	16a\JJ	.	16a\JJ	.	.	.	.	.	.	.
!	!	!	!	!LO:LB:g=original	!	!	!	!LO:LB:g=original	!	!	!
=65	=65	=65	=65	=65	=65	=65	=65	=65	=65	=65	=65
!	!	!LO:TX:a:t=P:problem=mixed beam	!	!	!	!	!	!	!	!	!
4G\	.	8b\L	.	8b\L	.	4G/	-bis	4b\	-bis	4g/	4dd\
.	.	8d/J	.	8g\	.	.	.	.	.	.	.
*	*	*	*	*	*	*	*ij	*	*ij	*	*
4G\	.	8g/L	.	8b\	.	8B\	mi-	8dd\	mi-	4r	4r
.	.	8b/J	.	8dd\J	.	8B\	-se-	8dd\	-se-	.	.
=66	=66	=66	=66	=66	=66	=66	=66	=66	=66	=66	=66
4G\	.	8dd\L	.	16ffn\LL	.	8d\	-re-	8ff\	-re-	8g/L	8dd\L
.	.	.	.	16ee\	.	.	.	.	.	.	.
.	.	16dd\L	.	16dd\	.	8d\	-re	8ff\	-re	8g/	8dd\
.	.	16cc\JJ	.	16cc\JJ	.	.	.	.	.	.	.
4GG/	.	16b/LL	.	16b\LL	.	4d\	no-	4ff\	no-	8g/	8dd\
.	.	16a/	.	16a\	.	.	.	.	.	.	.
.	.	16g/	.	16g\	.	.	.	.	.	8g/J	8dd\J
.	.	16f/JJ	.	16f\JJ	.	.	.	.	.	.	.
!	!	!LO:LB:g=original	!	!	!	!	!	!	!	!	!
=67	=67	=67	=67	=67	=67	=67	=67	=67	=67	=67	=67
8C/L	.	8e/L	.	8e/L	.	4c\	-bis	4ee\	-bis	4cc\	4ee\
*	*	*	*	*	*	*	*Xij	*	*Xij	*	*
8C/	.	8e/	.	8g/J	.	.	.	.	.	.	.
8C/	.	8g/	.	8cc\L	.	8c\	mi-	8ee\	Mi-	4r	4r
8C/J	.	8cc/J	.	8ee\J	.	8c\	-se-	8ee\	-se-	.	.
!	!	!	!	!	!	!LO:LB:g=original	!	!	!	!	!
=68	=68	=68	=68	=68	=68	=68	=68	=68	=68	=68	=68
!	!	!	!	!LO:TX:a:t=P:problem=mixed beam	!	!	!	!	!	!	!
8G\L	.	8d/L	.	8f/L	.	8d\	-re-	8ff\	-re-	8g/L	8dd\L
8G\	.	8f/J	.	8dd\J	.	8d\	-re	8ff\	-re	8g/	8dd\
8G\	.	8B/L	.	8d/L	.	4d\	no-	4ff\	no-	8g/	8dd\
8G\J	.	8d/J	.	8f/J	.	.	.	.	.	8g/J	8dd\J
=69	=69	=69	=69	=69	=69	=69	=69	=69	=69	=69	=69
8C/L	.	8c/L	.	8e/L	.	4c\	-bis	4ee\	-bis	4cc\	4ee\
8C/	.	8e/J	.	8g/J	.	.	.	.	.	.	.
*	*	*	*	*	*	*	*ij	*	*ij	*	*
8C/	.	8g/L	.	8cc\L	.	8c\	mi-	8ee\	mi-	4r	4r
8C/J	.	8cc/J	.	8ee\J	.	8c\	-se-	8ee\	-se-	.	.
=70	=70	=70	=70	=70	=70	=70	=70	=70	=70	=70	=70
!	!	!	!	!LO:TX:a:t=P:problem=mixed beam	!	!	!	!	!	!	!
8G\L	.	8d/L	.	8f/L	.	8d\	-re-	8ff\	-re-	8g/L	8dd\L
8G\	.	8f/J	.	8dd\J	.	8d\	-re	8ff\	-re	8g/	8dd\
8G\	.	8B/L	.	8d/L	.	4d\	no-	4ff\	no-	8g/	8dd\
8G\J	.	8d/J	.	8f/J	.	.	.	.	.	8g/J	8dd\J
!	!	!	!	!	!	!	!	!	!	!LO:LB:g=original	!
=71	=71	=71	=71	=71	=71	=71	=71	=71	=71	=71	=71
!	!	!	!	!LO:TX:a:t=P:problem=mixed beam	!	!	!	!	!	!	!
4C\	.	8c/L	.	8e/L	.	4c\	-bis	4ee\	-bis	4cc\	4ee\
*	*	*	*	*	*	*	*Xij	*	*	*	*
.	.	8e/	.	16ee\L	.	.	.	.	.	.	.
.	.	.	.	16dd\JJ	.	.	.	.	.	.	.
4E\	.	8e/	.	16cc/LL	.	8G/	mi-	8cc\	mi-	4cc\	4cc\
.	.	.	.	16b/	.	.	.	.	.	.	.
.	.	8e/J	.	16a/	.	8G/	-se-	8cc\	-se-	.	.
.	.	.	.	16g/JJ	.	.	.	.	.	.	.
!LO:LB:g=original	!	!	!	!	!	!	!	!	!	!	!
=72	=72	=72	=72	=72	=72	=72	=72	=72	=72	=72	=72
4F\	.	8a\L	.	8a\L	.	8A\	-re-	8cc\	-re-	4cc\	4cc\
.	.	8a\	.	16ff\L	.	8A\	-re	8cc\	-re	.	.
*	*	*	*	*	*	*	*	*	*Xij	*	*
.	.	.	.	16ee\JJ	.	.	.	.	.	.	.
*	*	*	*	*	*	*	*ij	*	*	*	*
4D\	.	8a\	.	16dd\LL	.	8A\	mi-	8dd\	mi-	4dd\	4dd\
.	.	.	.	16cc\	.	.	.	.	.	.	.
.	.	8a\J	.	16b\	.	8A\	-se-	8dd\	-se-	.	.
.	.	.	.	16a\JJ	.	.	.	.	.	.	.
!	!	!	!	!LO:LB:g=original	!	!	!	!	!	!	!LO:LB:g=original
=73	=73	=73	=73	=73	=73	=73	=73	=73	=73	=73	=73
4G\	.	8b\L	.	8b\L	.	8B\	-re-	8dd\	-re-	4dd\	4dd\
.	.	8b\	.	16gg\L	.	8B\	-re	8dd\	-re	.	.
.	.	.	.	16ff\JJ	.	.	.	.	.	.	.
*	*	*	*	*	*	*	*	*custos	*	*	*
!	!	!	!	!	!	!	!	!LO:LB:g=original	!	!	!
*	*	*	*	*	*	*	*	*	*ij	*	*
4E\	.	8b\	.	16ee\LL	.	8B\	mi-	8ee\	mi-	4ee\	4ee\
.	.	.	.	16dd\	.	.	.	.	.	.	.
.	.	8b\J	.	16cc\	.	8B\	-se-	8ee\	-se-	.	.
.	.	.	.	16b\JJ	.	.	.	.	.	.	.
=74	=74	=74	=74	=74	=74	=74	=74	=74	=74	=74	=74
4A\	.	8cc\L	.	8cc\L	.	8c\	-re-	8ee\	-re-	4ee\	4ee\
.	.	8cc\	.	16aa\L	.	8c\	-re	8ee\	-re	.	.
*	*	*	*	*	*	*	*	*	*Xij	*	*
.	.	.	.	16gg\JJ	.	.	.	.	.	.	.
4F\	.	8cc\	.	16ff\LL	.	8c\	mi-	8ff\	mi-	4ff\	4ff\
.	.	.	.	16ee\	.	.	.	.	.	.	.
.	.	8cc\J	.	16dd\	.	8c\	-se-	8ff\	-se-	.	.
.	.	.	.	16cc\JJ	.	.	.	.	.	.	.
!	!	!	!	!	!	!LO:LB:g=original	!	!	!	!	!
=75	=75	=75	=75	=75	=75	=75	=75	=75	=75	=75	=75
4B\	.	8dd\L	.	8dd\L	.	8d\	-re-	8ff\	-re-	4ff\	4ff\
.	.	8dd\	.	16bb\L	.	8d\	-re	8ff\	-re	.	.
*	*	*	*	*	*	*	*Xij	*	*	*	*
.	.	.	.	16aa\JJ	.	.	.	.	.	.	.
*	*	*	*	*	*	*	*	*	*ij	*	*
4G\	.	8dd\	.	16gg\LL	.	8d\	mi-	8gg\	mi-	4g/	4dd\
.	.	.	.	16ff\	.	.	.	.	.	.	.
.	.	8dd\J	.	16ee\	.	8d\	-se-	8gg\	-se-	.	.
.	.	.	.	16dd\JJ	.	.	.	.	.	.	.
=76	=76	=76	=76	=76	=76	=76	=76	=76	=76	=76	=76
!LO:TX:a:t=P:problem=mixed beam	!	!	!	!	!	!	!	!	!	!	!
8c\L	.	8cc\L	.	8ee\L	.	8c\	-re-	8ee\	-re-	4cc\	4ee\
8C/	.	8ee\	.	8gg\	.	8c\	-re	8ee\	-re	.	.
*	*	*	*	*	*	*	*ij	*	*Xij	*	*
8C/	.	8ee\	.	8ccc\	.	8c\	mi-	8ee\	mi-	4r	4r
8C/J	.	8cc\J	.	8ee\J	.	8c\	-se-	8ee\	-se-	.	.
=77	=77	=77	=77	=77	=77	=77	=77	=77	=77	=77	=77
!	!	!LO:SIC:s=8b:v	!	!	!	!	!	!	!	!	!
8G\L	.	8cc\L	.	8dd\L	.	(4B\	-re-	4dd\	-re-	8g/L	8dd\L
*	*	*	*	*	*	*	*Xij	*	*	*	*
!	!	!LO:SIC:s=8dd:v	!	!	!	!	!	!	!	!	!
8G\	.	8ee\	.	8ff\J	.	.	.	.	.	8g/	8dd\
!	!	!	!	!LO:TX:a:t=P:problem=mixed beam	!	!	!	!	!	!	!
8G\	.	8b\	.	8g/L	.	4d\)	.	4ff\	-re	8g/	8dd\
8G\J	.	8dd\J	.	8ff\J	.	.	.	.	.	8g/J	8dd\J
=78	=78	=78	=78	=78	=78	=78	=78	=78	=78	=78	=78
8C/L	.	8cc\L	.	8ee\L	.	4c\	re	4ee\	.	4cc\	4ee\
8C/	.	8ee\	.	8gg\	.	.	.	.	.	.	.
8C/	.	8ee\	.	8ccc\	.	8c\	mi-	8ee\	mi-	4r	4r
8C/J	.	8cc\J	.	8ee\J	.	8c\	-se-	8ee\	-se-	.	.
!	!	!LO:LB:g=original	!	!	!	!	!	!	!	!	!
=79	=79	=79	=79	=79	=79	=79	=79	=79	=79	=79	=79
8G\L	.	8b\L	.	8dd\L	.	(4B\	-re-	4dd\	-re-	8g/L	8dd\L
8G\	.	8dd\	.	8ff\J	.	.	.	.	.	8g/	8dd\
!	!	!	!	!LO:TX:a:t=P:problem=mixed beam	!	!	!	!	!	!	!
8G\	.	8g\	.	8g/L	.	4d\)	.	4ff\	.	8g/	8dd\
8G\J	.	8dd\J	.	8ff\J	.	.	.	.	.	8g/J	8dd\J
=80	=80	=80	=80	=80	=80	=80	=80	=80	=80	=80	=80
!	!	!	!	!	!	!LO:SIC:s=4c:v	!	!	!	!	!
4C/	.	8cc\L	.	8ee\L	.	4d\	-re	4ee\	-re	4cc\	4ee\
.	.	8g\J	.	8cc\J	.	.	.	.	.	.	.
*	*	*	*	*	*	*	*ij	*	*	*	*
4E/	.	8e/L	.	8g/L	.	8G/	mi-	8cc\	mi-	4cc\	4cc\
.	.	8g/J	.	8b-X/J	.	8G/	-se-	8b-X\	-se-	.	.
!	!	!	!	!LO:LB:g=original	!	!	!	!LO:LB:g=original	!	!	!
=81	=81	=81	=81	=81	=81	=81	=81	=81	=81	=81	=81
!	!	!LO:TX:a:t=P:problem=mixed beam	!	!	!	!	!	!	!	!	!
4F\	.	8f/L	.	8a\L	.	4F/	-re-	4a\	-re-	4cc\	4cc\
.	.	8aa\J	.	8aa\J	.	.	.	.	.	.	.
!	!	!	!	!	!	!	!	!	!	!	!LO:SIC:s=4ff:v
4D\	.	8ff\L	.	8ff\L	.	4d\	-re	4ff\	-re	4dd\	4ee\
*	*	*	*	*	*	*	*Xij	*	*	*	*
.	.	8dd\J	.	8dd\J	.	.	.	.	.	.	.
!	!	!	!	!	!	!LO:LB:g=original	!	!	!	!	!
=82	=82	=82	=82	=82	=82	=82	=82	=82	=82	=82	=82
*	*	*	*	*	*	*	*	*	*ij	*	*
4G\	.	8b\L	.	8b\L	.	4B\	no-	4dd\	no-	4g/	4dd\
.	.	8g\	.	8g\	.	.	.	.	.	.	.
8E\L	.	8cc\	.	8cc\	.	8c\L	.	8ee\L	-bis	8cc\L	8ee\L
*	*	*	*	*	*	*	*	*	*Xij	*	*
8F\J	.	8dd\J	.	8ff\J	.	8d\J	.	8ff\J	.	8dd\J	8ff\J
=83	=83	=83	=83	=83	=83	=83	=83	=83	=83	=83	=83
4G\	.	4cc\	.	4ee\	.	4c\	.	4ee\	no-	4cc\	4ee\
4GG/	.	4b\	.	4ddM\	.	4B\	.	4dd\	.	4g/	4dd\
!LO:LB:g=original	!	!	!	!	!	!	!	!	!	!LO:LB:g=original	!
=84	=84	=84	=84	=84	=84	=84	=84	=84	=84	=84	=84
*	*	*^	*	*	*	*	*	*	*	*	*
4C 4CC/	.	4cc 4e/	4c\	.	4cc\	.	4c\	-bis	4ee\	-bis	4cc\	4ee\
!LO:N:vis=4	!	!	!	!	!	!	!	!	!	!	!	!
8r	.	4r	4ryy	.	4r	.	4r	.	4r	.	4r	4r
!LO:N:vis=4	!	!	!	!	!	!	!	!	!	!	!	!
!LO:TX:b:t=Laus Deo	!	!	!	!	!	!	!	!	!	!	!	!
8r	.	.	.	.	.	.	.	.	.	.	.	.
*	*	*v	*v	*	*	*	*	*	*	*	*	*
==	==	==	==	==	==	==	==	==	==	==	==
*-	*-	*-	*-	*-	*-	*-	*-	*-	*-	*-	*-
!!!system-decoration: [g1][g2][g3]s7
!!!RDF**dynam: p = "pia"
!!!RDF**dynam: f = "for"
!!!AIN: 3 empty 1 tenor 2 violn 1 vox
!!!ENC: Marta Lawrence
!!!END: 2020-10-28
!!!ENC: Andrzej Borzym
!!!END: 2020-05-29
